images/e-mail.svg

<svg width="15" height="13" viewBox="0 0 15 13" fill="none" xmlns="http://www.w3.org/2000/svg">
<g clip-path="url(#clip0_11518_3286)">
<path d="M7.6 8.35693C7.2 8.35693 7 8.25693 6.6 8.05693L0 4.35693V11.3569C0 11.9569 0.4 12.3569 0.9 12.3569H14.1C14.7 12.3569 15 11.9569 15 11.3569V4.35693L8.5 8.05693C8.1 8.25693 7.9 8.35693 7.6 8.35693ZM14.1 0.356934H0.9C0.4 0.356934 0 0.856934 0 1.35693V2.15693L7.5 6.35693L15 2.15693V1.35693C15 0.856934 14.6 0.356934 14.1 0.356934Z" fill="black"/>
</g>
<defs>
<clipPath id="clip0_11518_3286">
<rect width="15" height="12" fill="white" transform="translate(0 0.356934)"/>
</clipPath>
</defs>
</svg>

<svg width="15" height="13" fill="none" xmlns="http://www.w3.org/2000/svg"><g clip-path="url(#a)"><path d="M7.6 8.36c-.4 0-.6-.1-1-.3L0 4.36v7c0 .6.4 1 .9 1h13.2c.6 0 .9-.4.9-1v-7l-6.5 3.7c-.4.2-.6.3-.9.3Zm6.5-8H.9c-.5 0-.9.5-.9 1v.8l7.5 4.2 7.5-4.2v-.8c0-.5-.4-1-.9-1Z" fill="#000"/></g><defs><clipPath id="a"><path fill="#fff" transform="translate(0 .36)" d="M0 0h15v12H0z"/></clipPath></defs></svg>
